Sources/FrostedUI/Resources/Icons.xcassets/copy16.imageset/copy-16.svg

<svg width="16" height="16" viewBox="0 0 16 16" fill="none" xmlns="http://www.w3.org/2000/svg" data-fui-icon="true">
  <path
    d="M4.25 5C4.66421 5 5 5.33579 5 5.75C5 6.16421 4.66421 6.5 4.25 6.5H2.16016C1.79565 6.5 1.5 6.79565 1.5 7.16016V13.8398C1.5 14.2044 1.79565 14.5 2.16016 14.5H7.83984C8.20435 14.5 8.5 14.2044 8.5 13.8398V12.75C8.5 12.3358 8.83579 12 9.25 12C9.66421 12 10 12.3358 10 12.75V13.8398C10 15.0328 9.03278 16 7.83984 16H2.16016C0.967221 16 0 15.0328 0 13.8398V7.16016C0 5.96722 0.967221 5 2.16016 5H4.25ZM13.8398 0C15.0328 0 16 0.967221 16 2.16016V8.83984C16 10.0328 15.0328 11 13.8398 11H8.16016C6.96722 11 6 10.0328 6 8.83984V2.16016C6 0.967221 6.96722 0 8.16016 0H13.8398ZM8.16016 1.5C7.79565 1.5 7.5 1.79565 7.5 2.16016V8.83984C7.5 9.20435 7.79565 9.5 8.16016 9.5H13.8398C14.2044 9.5 14.5 9.20435 14.5 8.83984V2.16016C14.5 1.79565 14.2044 1.5 13.8398 1.5H8.16016Z"
    fill="currentColor"
  />
</svg>

<svg xmlns="http://www.w3.org/2000/svg" width="16" height="16" fill="none" data-fui-icon="true" viewBox="0 0 16 16"><path fill="currentColor" d="M4.25 5a.75.75 0 0 1 0 1.5H2.16a.66.66 0 0 0-.66.66v6.68c0 .364.296.66.66.66h5.68a.66.66 0 0 0 .66-.66v-1.09a.75.75 0 0 1 1.5 0v1.09A2.16 2.16 0 0 1 7.84 16H2.16A2.16 2.16 0 0 1 0 13.84V7.16A2.16 2.16 0 0 1 2.16 5zm9.59-5A2.16 2.16 0 0 1 16 2.16v6.68A2.16 2.16 0 0 1 13.84 11H8.16A2.16 2.16 0 0 1 6 8.84V2.16A2.16 2.16 0 0 1 8.16 0zM8.16 1.5a.66.66 0 0 0-.66.66v6.68c0 .364.296.66.66.66h5.68a.66.66 0 0 0 .66-.66V2.16a.66.66 0 0 0-.66-.66z"/></svg>
